static/img/kroki/d456938dc62961941fce4ff66f91c62f.svg

<?xml version="1.0" encoding="us-ascii" standalone="no"?><svg xmlns="http://www.w3.org/2000/svg" xmlns:xlink="http://www.w3.org/1999/xlink" contentStyleType="text/css" height="252px" preserveAspectRatio="none" style="width:481px;height:252px;" version="1.1" viewBox="0 0 481 252" width="481px" zoomAndPan="magnify"><defs/><g><!--class kubernetes_cluster--><g id="elem_kubernetes_cluster"><rect codeLine="23" fill="#3D176E" height="39.7891" id="kubernetes_cluster" rx="2.5" ry="2.5" style="stroke:#000D19;stroke-width:0.5;" width="201" x="7.5" y="7"/><ellipse cx="22.5" cy="26.8945" fill="#ADD1B2" rx="11" ry="11" style="stroke:#181818;stroke-width:1.0;"/><path d="M25.4688,32.5352 Q24.8906,32.832 24.25,32.9727 Q23.6094,33.1289 22.9063,33.1289 Q20.4063,33.1289 19.0781,31.4883 Q17.7656,29.832 17.7656,26.707 Q17.7656,23.582 19.0781,21.9258 Q20.4063,20.2695 22.9063,20.2695 Q23.6094,20.2695 24.25,20.4258 Q24.9063,20.582 25.4688,20.8789 L25.4688,23.5977 Q24.8438,23.0195 24.25,22.7539 Q23.6563,22.4727 23.0313,22.4727 Q21.6875,22.4727 21,23.5508 Q20.3125,24.6133 20.3125,26.707 Q20.3125,28.8008 21,29.8789 Q21.6875,30.9414 23.0313,30.9414 Q23.6563,30.9414 24.25,30.6758 Q24.8438,30.3945 25.4688,29.8164 L25.4688,32.5352 Z " fill="#000000"/><text fill="#D9B8FF" font-family="Helvetica" font-size="17" lengthAdjust="spacing" textLength="159" x="41.5" y="32.7798">kubernetes_cluster</text></g><!--class kubernetes_csi_node--><g id="elem_kubernetes_csi_node"><rect codeLine="26" fill="#3D176E" height="39.7891" id="kubernetes_csi_node" rx="2.5" ry="2.5" style="stroke:#000D19;stroke-width:0.5;" width="216" x="7" y="206.58"/><ellipse cx="22" cy="226.4745" fill="#ADD1B2" rx="11" ry="11" style="stroke:#181818;stroke-width:1.0;"/><path d="M24.9688,232.1152 Q24.3906,232.412 23.75,232.5527 Q23.1094,232.7089 22.4063,232.7089 Q19.9063,232.7089 18.5781,231.0683 Q17.2656,229.412 17.2656,226.287 Q17.2656,223.162 18.5781,221.5058 Q19.9063,219.8495 22.4063,219.8495 Q23.1094,219.8495 23.75,220.0058 Q24.4063,220.162 24.9688,220.4589 L24.9688,223.1777 Q24.3438,222.5995 23.75,222.3339 Q23.1563,222.0527 22.5313,222.0527 Q21.1875,222.0527 20.5,223.1308 Q19.8125,224.1933 19.8125,226.287 Q19.8125,228.3808 20.5,229.4589 Q21.1875,230.5214 22.5313,230.5214 Q23.1563,230.5214 23.75,230.2558 Q24.3438,229.9745 24.9688,229.3964 L24.9688,232.1152 Z " fill="#000000"/><text fill="#D9B8FF" font-family="Helvetica" font-size="17" lengthAdjust="spacing" textLength="174" x="41" y="232.3598">kubernetes_csi_node</text></g><!--class kubernetes_endpoint--><g id="elem_kubernetes_endpoint"><rect codeLine="29" fill="#3D176E" height="39.7891" id="kubernetes_endpoint" rx="2.5" ry="2.5" style="stroke:#000D19;stroke-width:0.5;" width="219" x="255.5" y="7"/><ellipse cx="270.5" cy="26.8945" fill="#ADD1B2" rx="11" ry="11" style="stroke:#181818;stroke-width:1.0;"/><path d="M273.4688,32.5352 Q272.8906,32.832 272.25,32.9727 Q271.6094,33.1289 270.9063,33.1289 Q268.4063,33.1289 267.0781,31.4883 Q265.7656,29.832 265.7656,26.707 Q265.7656,23.582 267.0781,21.9258 Q268.4063,20.2695 270.9063,20.2695 Q271.6094,20.2695 272.25,20.4258 Q272.9063,20.582 273.4688,20.8789 L273.4688,23.5977 Q272.8438,23.0195 272.25,22.7539 Q271.6563,22.4727 271.0313,22.4727 Q269.6875,22.4727 269,23.5508 Q268.3125,24.6133 268.3125,26.707 Q268.3125,28.8008 269,29.8789 Q269.6875,30.9414 271.0313,30.9414 Q271.6563,30.9414 272.25,30.6758 Q272.8438,30.3945 273.4688,29.8164 L273.4688,32.5352 Z " fill="#000000"/><text fill="#D9B8FF" font-family="Helvetica" font-size="17" lengthAdjust="spacing" textLength="177" x="289.5" y="32.7798">kubernetes_endpoint</text></g><!--class kubernetes_node--><g id="elem_kubernetes_node"><rect codeLine="32" fill="#3D176E" height="39.7891" id="kubernetes_node" rx="2.5" ry="2.5" style="stroke:#000D19;stroke-width:0.5;" width="186" x="138" y="106.79"/><ellipse cx="153" cy="126.6845" fill="#ADD1B2" rx="11" ry="11" style="stroke:#181818;stroke-width:1.0;"/><path d="M155.9688,132.3252 Q155.3906,132.622 154.75,132.7627 Q154.1094,132.9189 153.4063,132.9189 Q150.9063,132.9189 149.5781,131.2783 Q148.2656,129.622 148.2656,126.497 Q148.2656,123.372 149.5781,121.7158 Q150.9063,120.0595 153.4063,120.0595 Q154.1094,120.0595 154.75,120.2158 Q155.4063,120.372 155.9688,120.6689 L155.9688,123.3877 Q155.3438,122.8095 154.75,122.5439 Q154.1563,122.2627 153.5313,122.2627 Q152.1875,122.2627 151.5,123.3408 Q150.8125,124.4033 150.8125,126.497 Q150.8125,128.5908 151.5,129.6689 Q152.1875,130.7314 153.5313,130.7314 Q154.1563,130.7314 154.75,130.4658 Q155.3438,130.1845 155.9688,129.6064 L155.9688,132.3252 Z " fill="#000000"/><text fill="#D9B8FF" font-family="Helvetica" font-size="17" lengthAdjust="spacing" textLength="144" x="172" y="132.5698">kubernetes_node</text></g><!--class kubernetes_pod--><g id="elem_kubernetes_pod"><rect codeLine="35" fill="#3D176E" height="39.7891" id="kubernetes_pod" rx="2.5" ry="2.5" style="stroke:#000D19;stroke-width:0.5;" width="175" x="273.5" y="206.58"/><ellipse cx="288.5" cy="226.4745" fill="#ADD1B2" rx="11" ry="11" style="stroke:#181818;stroke-width:1.0;"/><path d="M291.4688,232.1152 Q290.8906,232.412 290.25,232.5527 Q289.6094,232.7089 288.9063,232.7089 Q286.4063,232.7089 285.0781,231.0683 Q283.7656,229.412 283.7656,226.287 Q283.7656,223.162 285.0781,221.5058 Q286.4063,219.8495 288.9063,219.8495 Q289.6094,219.8495 290.25,220.0058 Q290.9063,220.162 291.4688,220.4589 L291.4688,223.1777 Q290.8438,222.5995 290.25,222.3339 Q289.6563,222.0527 289.0313,222.0527 Q287.6875,222.0527 287,223.1308 Q286.3125,224.1933 286.3125,226.287 Q286.3125,228.3808 287,229.4589 Q287.6875,230.5214 289.0313,230.5214 Q289.6563,230.5214 290.25,230.2558 Q290.8438,229.9745 291.4688,229.3964 L291.4688,232.1152 Z " fill="#000000"/><text fill="#D9B8FF" font-family="Helvetica" font-size="17" lengthAdjust="spacing" textLength="133" x="307.5" y="232.3598">kubernetes_pod</text></g><!--link kubernetes_cluster to kubernetes_csi_node--><g id="link_kubernetes_cluster_kubernetes_csi_node"><path codeLine="38" d="M108.68,47.2 C110.02,84.97 112.7576,162.2638 114.0976,200.0938 " fill="none" id="kubernetes_cluster-to-kubernetes_csi_node" style="stroke:#1A83AF;stroke-width:2.0;"/><polygon fill="#1A83AF" points="114.31,206.09,117.9889,196.954,114.133,201.0931,109.9939,197.2372,114.31,206.09" style="stroke:#1A83AF;stroke-width:2.0;"/></g><!--link kubernetes_cluster to kubernetes_node--><g id="link_kubernetes_cluster_kubernetes_node"><path codeLine="39" d="M132.3,47.22 C153.86,64.36 180.5042,85.5351 202.0542,102.6751 " fill="none" id="kubernetes_cluster-to-kubernetes_node" style="stroke:#1A83AF;stroke-width:2.0;"/><polygon fill="#1A83AF" points="206.75,106.41,202.1962,97.6771,202.8368,103.2976,197.2164,103.9382,206.75,106.41" style="stroke:#1A83AF;stroke-width:2.0;"/></g><!--link kubernetes_endpoint to kubernetes_node--><g id="link_kubernetes_endpoint_kubernetes_node"><path codeLine="40" d="M338.53,47.22 C315.03,64.36 285.7354,85.7314 262.2654,102.8714 " fill="none" id="kubernetes_endpoint-to-kubernetes_node" style="stroke:#1A83AF;stroke-width:2.0;"/><polygon fill="#1A83AF" points="257.42,106.41,267.0472,104.3324,261.4579,103.4612,262.3291,97.8718,257.42,106.41" style="stroke:#1A83AF;stroke-width:2.0;"/></g><!--link kubernetes_endpoint to kubernetes_pod--><g id="link_kubernetes_endpoint_kubernetes_pod"><path codeLine="41" d="M364.61,47.2 C363.84,84.97 362.2821,162.2612 361.5121,200.0912 " fill="none" id="kubernetes_endpoint-to-kubernetes_pod" style="stroke:#1A83AF;stroke-width:2.0;"/><polygon fill="#1A83AF" points="361.39,206.09,365.5723,197.1733,361.4918,201.091,357.574,197.0105,361.39,206.09" style="stroke:#1A83AF;stroke-width:2.0;"/></g><!--link kubernetes_node to kubernetes_csi_node--><g id="link_kubernetes_node_kubernetes_csi_node"><path codeLine="42" d="M208.08,147.01 C187.75,164.15 162.7763,185.1914 142.4563,202.3314 " fill="none" id="kubernetes_node-to-kubernetes_csi_node" style="stroke:#1A83AF;stroke-width:2.0;"/><polygon fill="#1A83AF" points="137.87,206.2,147.3285,203.4547,141.6919,202.9762,142.1704,197.3396,137.87,206.2" style="stroke:#1A83AF;stroke-width:2.0;"/></g><!--link kubernetes_node to kubernetes_pod--><g id="link_kubernetes_node_kubernetes_pod"><path codeLine="43" d="M256.68,147.01 C279.47,164.15 307.7956,185.4526 330.5756,202.5926 " fill="none" id="kubernetes_node-to-kubernetes_pod" style="stroke:#1A83AF;stroke-width:2.0;"/><polygon fill="#1A83AF" points="335.37,206.2,330.5833,197.5926,331.3746,203.1938,325.7734,203.9852,335.37,206.2" style="stroke:#1A83AF;stroke-width:2.0;"/></g><!--SRC=[hP9FIyD04CNl-HGBFHSIYwQz2B5Gz5B4UXCfs-nikoJP3RCJInM_kudLicx-b8BNVRytyzwmEoM0GL7IWHLGR01jO3EbIuwyO0cYsSzDRf2DfEHo4llYmcWw2onv0UmUyZSWbNAVUDwfDDDWBRjof3kUPbiqbHR7yOHSsre2JGurpxcr2H6gJKNWX16ppLHAd_I7ZYOYYc-WXHaKW3z868OYcld8sLM3lK_4Ihq3YzoZBGr1AsPhnJSrcB8Xd92jehzwRyP7BeJIMtRjl3qTCw46_FE-sd5XzWqjUMxTDPO0mT2XX7ch5SocGiQTy4CV7AJDwLXMrJzL0u5TftdL-DX747nsg5QjjQc_UBSCMfH6QUgH1vob4KUb8yhuPHGbqqcoU1tVTeMvnEFpfyJ_PgYR17xdIneC6fhXNm00]--></g></svg>

<svg xmlns="http://www.w3.org/2000/svg" width="481" height="252" viewBox="0 0 481 252"><rect width="201" height="39.789" x="7.5" y="7" fill="#3D176E" rx="2.5" ry="2.5" style="stroke:#000d19;stroke-width:.5"/><circle cx="22.5" cy="26.895" r="11" fill="#ADD1B2" style="stroke:#181818;stroke-width:1"/><path d="M25.469 32.535q-.578.297-1.219.438-.64.156-1.344.156-2.5 0-3.828-1.64-1.312-1.657-1.312-4.782t1.312-4.781q1.328-1.656 3.828-1.656.703 0 1.344.156.656.156 1.219.453v2.719q-.625-.578-1.219-.844-.594-.281-1.219-.281-1.343 0-2.031 1.078-.687 1.062-.687 3.156T21 29.879q.688 1.062 2.031 1.062.625 0 1.219-.265.594-.281 1.219-.86z"/><text x="41.5" y="32.78" fill="#D9B8FF" font-family="Helvetica" font-size="17" textLength="159">kubernetes_cluster</text><rect width="216" height="39.789" x="7" y="206.58" fill="#3D176E" rx="2.5" ry="2.5" style="stroke:#000d19;stroke-width:.5"/><circle cx="22" cy="226.475" r="11" fill="#ADD1B2" style="stroke:#181818;stroke-width:1"/><path d="M24.969 232.115q-.578.297-1.219.438-.64.156-1.344.156-2.5 0-3.828-1.64-1.312-1.657-1.312-4.782t1.312-4.781q1.328-1.656 3.828-1.656.703 0 1.344.156.656.156 1.219.453v2.719q-.625-.578-1.219-.844-.594-.281-1.219-.281-1.343 0-2.031 1.078-.687 1.062-.687 3.156t.687 3.172q.688 1.062 2.031 1.062.625 0 1.219-.265.594-.281 1.219-.86z"/><text x="41" y="232.36" fill="#D9B8FF" font-family="Helvetica" font-size="17" textLength="174">kubernetes_csi_node</text><rect width="219" height="39.789" x="255.5" y="7" fill="#3D176E" rx="2.5" ry="2.5" style="stroke:#000d19;stroke-width:.5"/><circle cx="270.5" cy="26.895" r="11" fill="#ADD1B2" style="stroke:#181818;stroke-width:1"/><path d="M273.469 32.535q-.578.297-1.219.438-.64.156-1.344.156-2.5 0-3.828-1.64-1.312-1.657-1.312-4.782t1.312-4.781q1.328-1.656 3.828-1.656.703 0 1.344.156.656.156 1.219.453v2.719q-.625-.578-1.219-.844-.594-.281-1.219-.281-1.344 0-2.031 1.078-.687 1.062-.687 3.156t.687 3.172q.688 1.062 2.031 1.062.625 0 1.219-.265.594-.281 1.219-.86z"/><text x="289.5" y="32.78" fill="#D9B8FF" font-family="Helvetica" font-size="17" textLength="177">kubernetes_endpoint</text><rect width="186" height="39.789" x="138" y="106.79" fill="#3D176E" rx="2.5" ry="2.5" style="stroke:#000d19;stroke-width:.5"/><circle cx="153" cy="126.684" r="11" fill="#ADD1B2" style="stroke:#181818;stroke-width:1"/><path d="M155.969 132.325q-.578.297-1.219.438-.64.156-1.344.156-2.5 0-3.828-1.64-1.312-1.657-1.312-4.782t1.312-4.781q1.328-1.656 3.828-1.656.703 0 1.344.156.656.156 1.219.453v2.719q-.625-.579-1.219-.844-.594-.281-1.219-.281-1.344 0-2.031 1.078-.687 1.062-.687 3.156t.687 3.172q.688 1.062 2.031 1.062.625 0 1.219-.265.594-.281 1.219-.86z"/><text x="172" y="132.57" fill="#D9B8FF" font-family="Helvetica" font-size="17" textLength="144">kubernetes_node</text><rect width="175" height="39.789" x="273.5" y="206.58" fill="#3D176E" rx="2.5" ry="2.5" style="stroke:#000d19;stroke-width:.5"/><circle cx="288.5" cy="226.475" r="11" fill="#ADD1B2" style="stroke:#181818;stroke-width:1"/><path d="M291.469 232.115q-.578.297-1.219.438-.64.156-1.344.156-2.5 0-3.828-1.64-1.312-1.657-1.312-4.782t1.312-4.781q1.328-1.656 3.828-1.656.703 0 1.344.156.656.156 1.219.453v2.719q-.625-.578-1.219-.844-.594-.281-1.219-.281-1.344 0-2.031 1.078-.687 1.062-.687 3.156t.687 3.172q.688 1.062 2.031 1.062.625 0 1.219-.265.594-.281 1.219-.86z"/><text x="307.5" y="232.36" fill="#D9B8FF" font-family="Helvetica" font-size="17" textLength="133">kubernetes_pod</text><path fill="none" d="M108.68 47.2c1.34 37.77 4.078 115.064 5.418 152.894" style="stroke:#1a83af;stroke-width:2"/><path fill="#1A83AF" d="m114.31 206.09 3.679-9.136-3.856 4.14-4.14-3.857z" style="stroke:#1a83af;stroke-width:2"/><path fill="none" d="M132.3 47.22c21.56 17.14 48.204 38.315 69.754 55.455" style="stroke:#1a83af;stroke-width:2"/><path fill="#1A83AF" d="m206.75 106.41-4.554-8.733.64 5.62-5.62.641z" style="stroke:#1a83af;stroke-width:2"/><path fill="none" d="M338.53 47.22c-23.5 17.14-52.795 38.511-76.265 55.651" style="stroke:#1a83af;stroke-width:2"/><path fill="#1A83AF" d="m257.42 106.41 9.627-2.078-5.59-.87.872-5.59z" style="stroke:#1a83af;stroke-width:2"/><path fill="none" d="M364.61 47.2c-.77 37.77-2.328 115.061-3.098 152.891" style="stroke:#1a83af;stroke-width:2"/><path fill="#1A83AF" d="m361.39 206.09 4.182-8.917-4.08 3.918-3.918-4.08z" style="stroke:#1a83af;stroke-width:2"/><path fill="none" d="M208.08 147.01c-20.33 17.14-45.304 38.181-65.624 55.321" style="stroke:#1a83af;stroke-width:2"/><path fill="#1A83AF" d="m137.87 206.2 9.458-2.745-5.636-.479.478-5.636z" style="stroke:#1a83af;stroke-width:2"/><path fill="none" d="M256.68 147.01c22.79 17.14 51.116 38.443 73.896 55.583" style="stroke:#1a83af;stroke-width:2"/><path fill="#1A83AF" d="m335.37 206.2-4.787-8.607.792 5.6-5.602.792z" style="stroke:#1a83af;stroke-width:2"/></svg>
